public/images/icon-statistic-white.svg

<?xml version="1.0" encoding="UTF-8" standalone="no"?>
<svg xmlns:sketch="http://www.bohemiancoding.com/sketch/ns" xmlns="http://www.w3.org/2000/svg" height="20px" width="20px" version="1.1" xmlns:xlink="http://www.w3.org/1999/xlink" viewBox="0 0 20 20"><!-- Generator: Sketch 3.3.2 (12043) - http://www.bohemiancoding.com/sketch -->
 <title>Untitled</title>
 <desc>Created with Sketch.</desc>
 <g id="Page-1" fill-rule="evenodd" sketch:type="MSPage" fill="none">
  <g id="Group-Copy-13" fill="#fff" sketch:type="MSLayerGroup">
   <path id="Shape" sketch:type="MSShapeGroup" d="m19 20h-18c-0.6 0-1-0.4-1-1v-18c0-0.6 0.4-1 1-1s1 0.4 1 1v17h17c0.6 0 1 0.4 1 1s-0.4 1-1 1z"/>
   <rect id="Rectangle-path" sketch:type="MSShapeGroup" height="4" width="3" y="12" x="4"/>
   <rect id="Rectangle-path" sketch:type="MSShapeGroup" height="11" width="3" y="5" x="9"/>
   <rect id="Rectangle-path" sketch:type="MSShapeGroup" height="7" width="3" y="9" x="14"/>
  </g>
 </g>
</svg>

<?xml version="1.0" encoding="UTF-8" standalone="no"?>
<svg width="20px" height="20px" viewBox="0 0 20 20" version="1.1" xmlns="http://www.w3.org/2000/svg" xmlns:xlink="http://www.w3.org/1999/xlink" xmlns:sketch="http://www.bohemiancoding.com/sketch/ns">
    <!-- Generator: Sketch 3.3.2 (12043) - http://www.bohemiancoding.com/sketch -->
    <title>Untitled</title>
    <desc>Created with Sketch.</desc>
    <defs></defs>
    <g id="Page-1" stroke="none" stroke-width="1" fill="none" fill-rule="evenodd" sketch:type="MSPage">
        <g id="Group-Copy-13" sketch:type="MSLayerGroup" fill="#FFFFFF">
            <path d="M19,20 L1,20 C0.4,20 0,19.6 0,19 L0,1 C0,0.4 0.4,0 1,0 C1.6,0 2,0.4 2,1 L2,18 L19,18 C19.6,18 20,18.4 20,19 C20,19.6 19.6,20 19,20 L19,20 Z" id="Shape" sketch:type="MSShapeGroup"></path>
            <rect id="Rectangle-path" sketch:type="MSShapeGroup" x="4" y="12" width="3" height="4"></rect>
            <rect id="Rectangle-path" sketch:type="MSShapeGroup" x="9" y="5" width="3" height="11"></rect>
            <rect id="Rectangle-path" sketch:type="MSShapeGroup" x="14" y="9" width="3" height="7"></rect>
        </g>
    </g>
</svg>
